X:276
T: "Kleiner feiner Almanach"
N: Z0274
O: Europa, Mitteleuropa, Deutschland
R: Lyrisches Lied, Romanze
M: 6/8
L: 1/16
K: C
G,2 | C4ECF4E2 | D4FDG4
F2 | E4DCF4E2 | D6z4
G,2 | C4ECF4E2 | D4FDG4
F2 | E4DCF4E2 | D6z4
G,2 | D4ECD4G2 | G4FED4
F2 | E3DC2D3FED | C6z4

@@@ Tune index: 10034
